_inc/images/systems/logos/laserdisc.svg

<svg viewBox="0 0 264 55" xmlns="http://www.w3.org/2000/svg">
    <path fill-rule="evenodd" clip-rule="evenodd" style="fill:#fff" d="M8.63 0h15.216l-5.451 31.869H3.634L8.63 0zM2.726 36.617h14.988l-.454 3.615h12.491l-1.817 12.883H0l2.726-16.498zM198.034 2.713h13.853l-1.361 9.04h-13.854l1.362-9.04zm-1.93 12.883h13.852l-2.496 16.726h-13.854l2.498-16.726zm-3.179 21.021h13.852l-2.498 16.498h-13.854l2.5-16.498zm-63.362 0h13.853l-2.498 16.498h-13.854l2.499-16.498zm-84.711 0c-.117 1.066-.197 2.424-.077 3.644.165 1.489.746 2.68 2.166 2.68 1.87 0 2.997-1.637 3.643-3.571.365-1.007.626-1.839.816-2.788l12.909-.035-2.63 16.614H50.202l.674-3.308c-2.844 3.6-5.121 4.468-9.907 4.468-9.14 0-10.6-10.092-10.021-17.701l13.904-.003Zm7.123-4.295a25.044 25.044 0 0 0-.047-2.17c-.134-1.714-.673-3.201-2.392-3.201-1.795 0-2.869 1.787-3.621 3.946-.107.336-.201.66-.622 1.419l-14.024-.009c1.861-7.956 6.051-17.264 15.18-17.451 2.492-.051 7.147.288 8.968 3.832l.398.077.589-3.203h11.248l-2.591 16.76H51.975Zm16.498 0c-.838-1.664-1.188-3.656-.855-6.026 1.139-8.114 7.267-12.231 16.465-12.231 3.963 0 6.718.927 9.886 2.86l-1.508 10.419c-2.3-1.916-6.466-2.933-8.934-2.933-1.047 0-2.347.245-2.667 1.482-.466 1.795 1.555 2.782 4.013 3.646 2.032.716 3.76 1.6 5.139 2.765l-21.539.018Zm24.681 4.33c.626 1.708.813 3.764.508 5.934-1.245 8.856-8.881 12.188-17.031 12.188-5.384 0-7.649-.999-11.931-3.53l1.915-11.658c1.458 1.86 6.399 4.827 9.706 4.658 1.269-.065 3.834-.935 4.032-2.348.198-1.413-.413-2.455-3.603-3.465-1.492-.471-2.911-.97-4.167-1.741l20.571-.038Zm15.163-.029c-.552 3.323-.678 8.541 2.366 8.909 1.961.239 4.004-1.344 4.624-5.353h12.313c-2.146 12.597-9.563 14.883-18.387 14.82-9.614-.071-15.369-7.862-14.664-18.394l13.748.018Zm129.225-4.304c1.806-9.875 6.64-17.942 20.461-18.254 2.713-.062 4.869.852 5.997 1.505l-1.787 10.692c-5.485-2.214-8.468 2.132-9.522 6.075l-15.149-.018Zm14.832 4.304c.37 2.462 1.795 4.757 4.569 4.757l3.016-.228-1.758 11.966c-2.142.563-4.185.902-6.958.865-10.551-.15-14.876-7.87-14.263-17.375l15.394.015Zm-77.949 0c-1.651 2.663-3.303 4.625-7.05 4.286l.647-4.298-14.588.009-2.638 16.495h14.762c12.215 0 20.602-5.317 24.712-16.53l-15.845.038Zm-5.853-4.292 2.892-18.543c5.904 0 7.265 4.52 6.13 12.657-.283 2.034-.681 4.18-1.213 5.918l15.36.018c.556-2.29.8-4.831 1.07-7.519C194.854 4.52 183.727 0 172.599 0h-13.854l-1.93 14.465c-2.271.452-7.835 1.131-10.788 5.087-.568.564-.908.338-.795-.34l.568-3.616h-13.058l-2.498 16.726h13.854c.566-2.374 6.812-5.877 10.673-4.069l-.648 4.054 14.449.024Zm42.068-.009c-.838-1.664-1.188-3.656-.855-6.026 1.14-8.114 7.267-12.231 16.465-12.231 3.963 0 6.718.927 9.887 2.86l-1.51 10.419c-2.3-1.916-6.466-2.933-8.933-2.933-1.046 0-2.347.245-2.667 1.482-.465 1.795 1.555 2.782 4.013 3.646 2.032.716 3.76 1.6 5.138 2.765l-21.538.018Zm24.68 4.33c.626 1.708.812 3.764.509 5.934-1.244 8.856-8.881 12.188-17.031 12.188-5.386 0-7.651-.999-11.931-3.53l1.914-11.658c1.458 1.86 6.399 4.827 9.706 4.658 1.27-.065 3.834-.935 4.032-2.348.2-1.413-.412-2.455-3.601-3.465-1.493-.471-2.912-.97-4.168-1.741l20.57-.038ZM113.88 14.065c-11.116.075-16.586 7.839-18.745 18.251l33.563.009c.371-4.831.196-9.51-1.271-11.634-2.559-3.704-5.927-6.678-13.547-6.626Zm.216 8.721c2.618 0 3.043 2.829 2.815 4.987h-6.805c.207-2.01 1.523-4.987 3.99-4.987Z"/>
</svg>

<?xml version="1.0" encoding="utf-8"?>
<svg version="1.1" viewBox="0 0 264 55" xmlns="http://www.w3.org/2000/svg">
  <polygon fill-rule="evenodd" clip-rule="evenodd" points="8.63 0 23.846 0 18.395 31.869 3.634 31.869 8.63 0" style="fill: rgb(255, 255, 255);"/>
  <polygon fill-rule="evenodd" clip-rule="evenodd" points="2.726 36.617 17.714 36.617 17.26 40.232 29.751 40.232 27.934 53.115 0 53.115 2.726 36.617" style="fill: rgb(255, 255, 255);"/>
  <polygon fill-rule="evenodd" clip-rule="evenodd" points="198.034 2.713 211.887 2.713 210.526 11.753 196.672 11.753 198.034 2.713" style="fill: rgb(255, 255, 255);"/>
  <polygon fill-rule="evenodd" clip-rule="evenodd" points="196.104 15.596 209.956 15.596 207.46 32.322 193.606 32.322 196.104 15.596" style="fill: rgb(255, 255, 255);"/>
  <polygon fill-rule="evenodd" clip-rule="evenodd" points="192.925 36.617 206.777 36.617 204.279 53.115 190.425 53.115 192.925 36.617" style="fill: rgb(255, 255, 255);"/>
  <polygon fill-rule="evenodd" clip-rule="evenodd" points="129.563 36.617 143.416 36.617 140.918 53.115 127.064 53.115 129.563 36.617" style="fill: rgb(255, 255, 255);"/>
  <path fill-rule="evenodd" clip-rule="evenodd" d="M 44.852 36.617 C 44.735 37.683 44.655 39.041 44.775 40.261 C 44.94 41.75 45.521 42.941 46.941 42.941 C 48.811 42.941 49.938 41.304 50.584 39.37 C 50.949 38.363 51.21 37.531 51.4 36.582 L 64.309 36.547 L 61.679 53.161 L 50.202 53.161 L 50.876 49.853 C 48.032 53.453 45.755 54.321 40.969 54.321 C 31.829 54.321 30.369 44.229 30.948 36.62 L 44.852 36.617 L 44.852 36.617 Z" style="fill: rgb(255, 255, 255);"/>
  <path fill-rule="evenodd" clip-rule="evenodd" d="M 51.975 32.322 C 51.986 31.375 51.973 30.815 51.928 30.152 C 51.794 28.438 51.255 26.951 49.536 26.951 C 47.741 26.951 46.667 28.738 45.915 30.897 C 45.808 31.233 45.714 31.557 45.293 32.316 L 31.269 32.307 C 33.13 24.351 37.32 15.043 46.449 14.856 C 48.941 14.805 53.596 15.144 55.417 18.688 L 55.815 18.765 L 56.404 15.562 L 67.652 15.562 L 65.061 32.322 L 51.975 32.322 L 51.975 32.322 Z" style="fill: rgb(255, 255, 255);"/>
  <path fill-rule="evenodd" clip-rule="evenodd" d="M 68.473 32.322 C 67.635 30.658 67.285 28.666 67.618 26.296 C 68.757 18.182 74.885 14.065 84.083 14.065 C 88.046 14.065 90.801 14.992 93.969 16.925 L 92.461 27.344 C 90.161 25.428 85.995 24.411 83.527 24.411 C 82.48 24.411 81.18 24.656 80.86 25.893 C 80.394 27.688 82.415 28.675 84.873 29.539 C 86.905 30.255 88.633 31.139 90.012 32.304 L 68.473 32.322 L 68.473 32.322 Z" style="fill: rgb(255, 255, 255);"/>
  <path fill-rule="evenodd" clip-rule="evenodd" d="M 93.154 36.652 C 93.78 38.36 93.967 40.416 93.662 42.586 C 92.417 51.442 84.781 54.774 76.631 54.774 C 71.247 54.774 68.982 53.775 64.7 51.244 L 66.615 39.586 C 68.073 41.446 73.014 44.413 76.321 44.244 C 77.59 44.179 80.155 43.309 80.353 41.896 C 80.551 40.483 79.94 39.441 76.75 38.431 C 75.258 37.96 73.839 37.461 72.583 36.69 L 93.154 36.652 L 93.154 36.652 Z" style="fill: rgb(255, 255, 255);"/>
  <path fill-rule="evenodd" clip-rule="evenodd" d="M 108.317 36.623 C 107.765 39.946 107.639 45.164 110.683 45.532 C 112.644 45.771 114.687 44.188 115.307 40.179 L 127.62 40.179 C 125.474 52.776 118.057 55.062 109.233 54.999 C 99.619 54.928 93.864 47.137 94.569 36.605 L 108.317 36.623 L 108.317 36.623 Z" style="fill: rgb(255, 255, 255);"/>
  <path fill-rule="evenodd" clip-rule="evenodd" d="M 237.542 32.319 C 239.348 22.444 244.182 14.377 258.003 14.065 C 260.716 14.003 262.872 14.917 264 15.57 L 262.213 26.262 C 256.728 24.048 253.745 28.394 252.691 32.337 L 237.542 32.319 L 237.542 32.319 Z" style="fill: rgb(255, 255, 255);"/>
  <path fill-rule="evenodd" clip-rule="evenodd" d="M 252.374 36.623 C 252.744 39.085 254.169 41.38 256.943 41.38 L 259.959 41.152 L 258.201 53.118 C 256.059 53.681 254.016 54.02 251.243 53.983 C 240.692 53.833 236.367 46.113 236.98 36.608 L 252.374 36.623 L 252.374 36.623 Z" style="fill: rgb(255, 255, 255);"/>
  <path fill-rule="evenodd" clip-rule="evenodd" d="M 174.425 36.623 C 172.774 39.286 171.122 41.248 167.375 40.909 L 168.022 36.611 L 153.434 36.62 L 150.796 53.115 L 165.558 53.115 C 177.773 53.115 186.16 47.798 190.27 36.585 L 174.425 36.623 L 174.425 36.623 Z" style="fill: rgb(255, 255, 255);"/>
  <path fill-rule="evenodd" clip-rule="evenodd" d="M 168.572 32.331 L 171.464 13.788 C 177.368 13.788 178.729 18.308 177.594 26.445 C 177.311 28.479 176.913 30.625 176.381 32.363 L 191.741 32.381 C 192.297 30.091 192.541 27.55 192.811 24.862 C 194.854 4.52 183.727 0 172.599 0 L 158.745 0 L 156.815 14.465 C 154.544 14.917 148.98 15.596 146.027 19.552 C 145.459 20.116 145.119 19.89 145.232 19.212 L 145.8 15.596 L 132.742 15.596 L 130.244 32.322 L 144.098 32.322 C 144.664 29.948 150.91 26.445 154.771 28.253 L 154.123 32.307 L 168.572 32.331 L 168.572 32.331 Z" style="fill: rgb(255, 255, 255);"/>
  <path fill-rule="evenodd" clip-rule="evenodd" d="M 210.64 32.322 C 209.802 30.658 209.452 28.666 209.785 26.296 C 210.925 18.182 217.052 14.065 226.25 14.065 C 230.213 14.065 232.968 14.992 236.137 16.925 L 234.627 27.344 C 232.327 25.428 228.161 24.411 225.694 24.411 C 224.648 24.411 223.347 24.656 223.027 25.893 C 222.562 27.688 224.582 28.675 227.04 29.539 C 229.072 30.255 230.8 31.139 232.178 32.304 L 210.64 32.322 L 210.64 32.322 Z" style="fill: rgb(255, 255, 255);"/>
  <path fill-rule="evenodd" clip-rule="evenodd" d="M 235.32 36.652 C 235.946 38.36 236.132 40.416 235.829 42.586 C 234.585 51.442 226.948 54.774 218.798 54.774 C 213.412 54.774 211.147 53.775 206.867 51.244 L 208.781 39.586 C 210.239 41.446 215.18 44.413 218.487 44.244 C 219.757 44.179 222.321 43.309 222.519 41.896 C 222.719 40.483 222.107 39.441 218.918 38.431 C 217.425 37.96 216.006 37.461 214.75 36.69 L 235.32 36.652 L 235.32 36.652 Z" style="fill: rgb(255, 255, 255);"/>
  <path fill-rule="evenodd" clip-rule="evenodd" d="M 113.88 14.065 C 102.764 14.14 97.294 21.904 95.135 32.316 L 128.698 32.325 C 129.069 27.494 128.894 22.815 127.427 20.691 C 124.868 16.987 121.5 14.013 113.88 14.065 L 113.88 14.065 Z M 114.096 22.786 C 116.714 22.786 117.139 25.615 116.911 27.773 L 110.106 27.773 C 110.313 25.763 111.629 22.786 114.096 22.786 L 114.096 22.786 Z" style="fill: rgb(255, 255, 255);"/>
</svg>
